64x64/apps/avimetaedit.svg

<svg xmlns="http://www.w3.org/2000/svg" width="64" height="64" version="1">
 <path style="opacity:0.2" d="M 60,55.222222 V 10.777778 C 60,9.238889 58.7512,8 57.2,8 H 6.8 C 5.2488,8 4,9.238889 4,10.777778 V 55.222222 C 4,56.761112 5.2488,58 6.8,58 h 50.4 c 1.5512,0 2.8,-1.238888 2.8,-2.777778 z"/>
 <path style="fill:#7282d9" d="M 60,54.222222 V 9.7777778 C 60,8.2388888 58.7512,7 57.2,7 H 6.8 C 5.2488,7 4,8.2388888 4,9.7777778 V 54.222222 C 4,55.761112 5.2488,57 6.8,57 h 50.4 c 1.5512,0 2.8,-1.238888 2.8,-2.777778 z"/>
 <path style="opacity:0.2" d="M 52.957032,17.956043 A 3.0003,3.0003 0 0 0 50,20.999012 V 44.97948 a 3.0003,3.0003 0 1 0 6,0 V 20.999012 a 3.0003,3.0003 0 0 0 -3.042968,-3.042969 z m -24.066408,0.0039 a 3.0003,3.0003 0 0 0 -2.722656,3.984375 l 7.984376,24 a 3.0003,3.0003 0 0 0 5.695312,0.004 l 8,-24 A 3.0017078,3.0017078 0 1 0 42.152344,20.049792 L 37,35.502918 31.859376,20.0537 a 3.0003,3.0003 0 0 0 -2.968752,-2.093751 z m -10.046874,0.04298 a 3.0003,3.0003 0 0 0 -2.691406,2.046874 L 8.1679688,44.034168 A 3.0003,3.0003 0 1 0 13.859375,45.9287 l 5.144531,-15.4375 5.148438,15.4375 a 3.0016931,3.0016931 0 0 0 5.695312,-1.898438 l -8,-23.98047 A 3.0003,3.0003 0 0 0 18.84375,18.002918 Z"/>
 <path style="fill:none;stroke:#f4f4f7;stroke-width:6;stroke-linecap:round;stroke-linejoin:round" d="M 11.014326,43.98131 19,20 27,43.98131"/>
 <path style="fill:none;stroke:#f4f4f7;stroke-width:6;stroke-linecap:round;stroke-linejoin:round" d="M 29.014306,20 37,44 45,20"/>
 <path style="fill:none;stroke:#f4f4f7;stroke-width:6;stroke-linecap:round;stroke-linejoin:round" d="M 53.000482,20 V 43.98131"/>
 <path style="opacity:0.2;fill:#f4f4f7" d="M 6.8007812 7 C 5.2495812 7 4 8.2384547 4 9.7773438 L 4 10.777344 C 4 9.2384546 5.2495812 8 6.8007812 8 L 57.199219 8 C 58.750419 8 60 9.2384546 60 10.777344 L 60 9.7773438 C 60 8.2384547 58.750419 7 57.199219 7 L 6.8007812 7 z"/>
</svg>

<svg xmlns="http://www.w3.org/2000/svg" width="64" height="64" version="1"><path style="opacity:.2" d="M60 55.222V10.778A2.783 2.783 0 0 0 57.2 8H6.8A2.783 2.783 0 0 0 4 10.778v44.444A2.783 2.783 0 0 0 6.8 58h50.4c1.551 0 2.8-1.239 2.8-2.778z"/><path style="fill:#7282d9" d="M60 54.222V9.778A2.783 2.783 0 0 0 57.2 7H6.8A2.783 2.783 0 0 0 4 9.778v44.444A2.783 2.783 0 0 0 6.8 57h50.4c1.551 0 2.8-1.239 2.8-2.778z"/><path style="opacity:.2" d="M52.957 17.956A3 3 0 0 0 50 20.999v23.98a3 3 0 1 0 6 0V21a3 3 0 0 0-3.043-3.043zm-24.066.004a3 3 0 0 0-2.723 3.984l7.984 24a3 3 0 0 0 5.696.004l8-24a3.002 3.002 0 1 0-5.696-1.898L37 35.503l-5.14-15.45a3 3 0 0 0-2.97-2.093zm-10.047.043a3 3 0 0 0-2.692 2.047L8.168 44.034a3 3 0 1 0 5.691 1.895l5.145-15.438 5.148 15.438a3.002 3.002 0 0 0 5.696-1.899l-8-23.98a3 3 0 0 0-3.004-2.047z"/><path style="fill:none;stroke:#f4f4f7;stroke-width:6;stroke-linecap:round;stroke-linejoin:round" d="M11.014 43.981 19 20l8 23.981M29.014 20 37 44l8-24M53 20v23.981"/><path style="opacity:.2;fill:#f4f4f7" d="M6.8 7A2.783 2.783 0 0 0 4 9.777v1A2.783 2.783 0 0 1 6.8 8h50.4c1.55 0 2.8 1.238 2.8 2.777v-1A2.783 2.783 0 0 0 57.2 7H6.8z"/></svg>
